X:1
T:Klage
T:Klage
T:(Vom Niederrhein)
T:Johannes Brahms
C:Johannes Brahms
%%score 1 { ( 2 4 ) | ( 3 5 ) }
L:1/8
Q:1/4=80
M:3/4
K:Eb
V:1 treble nm="Voice"
V:2 treble nm="Piano"
V:4 treble 
V:3 bass 
V:5 bass 
V:1
 G2 | G3 F BG | E2 z2 E2 | G3 F BG | E2 z2 E2 | A3 A GA | G2 F2 CC | F3 F EF | E2 D2 =B2 | c4 A2 | %10
 F4 ^F2 | G3 E ED | C4 z2 | z6 | z6 | z6 | z6 | z6 :| %18
V:2
 [B,EG]2 | G3 F G2 | E3 D E2 | G3 F G2 | E3 D E2 | z2 [CEA]2 [B,=EG]2 | z2 [A,CF]2 [F,A,C]2 | %7
 z2 [A,CF]2 [F,A,C]2 | z2 z2 [EG][DF] | [CE]3 [EG] [DF][CE] | [B,D]3 [CE] [B,D][=A,C] | %11
 =B,D C^F, G,=F, | E,3 [G,E] [G,E][F,D] | [E,C]3 [EG] [EG][DF] | [CE]4 [B,EB]2 | [B,EB]4 [B,DA]2 | %16
 [B,EG]6 | [B,EG]4 z2 :| %18
V:3
 E,,2 | B,2 A,2 B,2 | G,2 A,2 G,2 | B,2 A,2 B,2 | G,2 [F,A,]2 G,2 | z2 A,,2 D,2 | z2 F,,2 A,,2 | %7
 z2 D,,2 F,,2 | z2 [G,,,D,G,=B,]2 G,,2 | A,,4 F,,2 | B,,4 D,,2 | E,,3 C,, [G,,,G,,]2 | %12
 [C,,A,,D]3 z [G,,=B,,]2 | [G,,C,]4 [G,,=B,,]2 | [G,,C,]3 G,,, G,,B,, | G,3 G,, B,,F, | %16
 [E,,E,]3 G,, B,,F, | E,4 z2 :| %18
V:4
 x2 | D2 C2 D2 | A,2 C2 B,2 | D2 C2 D2 | C4 C2 | x6 | x6 | x6 | x6 | x6 | x6 | G,F, E,2 =B,,2 | %12
 x6 | x6 | x6 | x6 | x6 | x6 :| %18
V:5
 x2 | B,,4 B,,2 | B,,4 B,,2 | B,,4 B,,2 | C,4 C,2 | x6 | x6 | x6 | x6 | x6 | x6 | x6 | x6 | x6 | %14
 x6 | x6 | x6 | x6 :| %18

